material/.icons/material/calendar-multiselect.svg

<svg xmlns="http://www.w3.org/2000/svg" viewBox="0 0 24 24"><path d="M19 19V8H5v11h14M16 1h2v2h1a2 2 0 012 2v14a2 2 0 01-2 2H5a2 2 0 01-2-2V5c0-1.11.89-2 2-2h1V1h2v2h8V1m-9 9h2v2H7v-2m8 0h2v2h-2v-2m-4 4h2v2h-2v-2m4 0h2v2h-2v-2z"/></svg>

<?xml version="1.0" encoding="UTF-8"?><!DOCTYPE svg PUBLIC "-//W3C//DTD SVG 1.1//EN" "http://www.w3.org/Graphics/SVG/1.1/DTD/svg11.dtd"><svg xmlns="http://www.w3.org/2000/svg" xmlns:xlink="http://www.w3.org/1999/xlink" version="1.1" id="mdi-calendar-multiselect" width="24" height="24" viewBox="0 0 24 24"><path d="M19,19V8H5V19H19M16,1H18V3H19A2,2 0 0,1 21,5V19A2,2 0 0,1 19,21H5C3.89,21 3,20.1 3,19V5C3,3.89 3.89,3 5,3H6V1H8V3H16V1M7,10H9V12H7V10M15,10H17V12H15V10M11,14H13V16H11V14M15,14H17V16H15V14Z" /></svg>
